X:1
T:My Favorite Things
T:Sound of Music 1965
T:Richard Rodgers (1902-1979)  
%%score 1 { 2 | 3 }
L:1/8
Q:1/4=180
M:3/4
K:G
V:1 treble nm="Flute" snm="Fl."
V:2 treble nm="Piano" snm="Pno."
V:3 bass 
V:1
 z6 | z6 | z6 | z6 | e2 b2 b2 | f2 e2 e2 | B2 e2 e2 | f2 e2 z2 | e2 b2 b2 | f2 e2 e2 | B2 e2 e2 | %11
 f2 e2 z2 | e2 b2 a2 | e2 f2 d2 | d2 a2 g2 | c6 | B2 c2 d2 | e2 f2 g2 | a2 b2 a2 | ^d6 | z6 | z6 | %22
 z6 | z6 | e2 b2 b2 | f2 e2 e2 | B2 e2 e2 | f2 e2 z2 | e2 b2 b2 | f2 e2 e2 | B2 e2 e2 | f2 e2 z2 | %32
 e2 b2 a2 | e2 f2 d2 | d2 a2 g2 | c6 | B2 c2 d2 | e2 f2 g2 | a2 b2 a2 | ^d6 | z6 | z6 | z6 | z6 | %44
 e2 b2 b2 | f2 e2 e2 | B2 e2 e2 | f2 e4 | e2 b2 b2 | f2 e2 e2 | B2 e2 e2 | f2 e4 | e2 b2 a2 | %53
 e2 f2 d2 | d2 a2 g2 | c6 | B2 c2 d2 | e2 f2 g2 | a2 ^a2 b2 | c'6 | z2 b2 b2 | b4 e2 | z2 a2 a2 | %63
 a4 ^d2 | z2 g2 g2 | g4 B2 | e6- | e4 e2 | e2 f2 e2 | f2 e2 f2 | g2 a2 g2 | a4 g2 | b2 c'2 b2 | %73
 c'6- | c'2 z4 | b6 | g6- | g6- | g2 z4 | z6 | z6 | z6 | z6 | z6 | z6 | z6 | z6 | z6 ||[K:A] z6 | %89
 z6 | z6 | z6 | f2 c'2 c'2 | g2 f2 f2 | c2 f2 f2 | g2 f2 z2 | f2 c'2 c'2 | g2 f2 f2 | c2 f2 f2 | %99
 g2 f2 z2 | f2 c'2 b2 | f2 g2 e2 | e2 b2 a2 | d6 | c2 d2 e2 | f2 g2 a2 | b2 c'2 b2 | =f6 | z6 | %109
 z6 | z6 | z6 | f2 c'2 c'2 | g2 f2 f2 | c2 f2 f2 | g2 f2 z2 | f2 c'2 c'2 | g2 f2 f2 | c2 f2 f2 | %119
 g2 f2 z2 | f2 c'2 b2 | f2 g2 e2 | e2 b2 a2 | d6 | c2 d2 e2 | f2 g2 a2 | b2 c'2 b2 | =f6 | z6 | %129
 z6 | z6 | z6 | f2 c'2 c'2 | g2 f2 f2 | c2 f2 f2 | g2 f2 z2 | f2 c'2 c'2 | g2 f2 f2 | c2 f2 f2 | %139
 g2 f2 z2 | f2 c'2 b2 | f2 g2 e2 | e2 b2 a2 | d6 | c2 d2 e2 | f2 g2 a2 | b2 ^b2 c'2 | d'6 | %148
 z2 c'2 c'2 | c'4 f2 | z2 b2 b2 | b4 =f2 | z2 a2 a2 | a4 c2 | f6- | f4 f2 | f2 g2 f2 | g2 f2 g2 | %158
 a2 b2 a2 | b4 a2 | c'2 d'2 c'2 | d'6- | d'2 z4 | c'6 | a6- | a6- | a6- | a6- | a6- | a6- | a6- | %171
 a2 z4 |] %172
V:2
 B2 e2 e2 | B2 A2 A2 | G2 c2 c2 | G2 F2 F2 | z6 | z6 | z6 | z2 .[Ge]2 .[Ge]2 | .[GBe]2 z4 | z6 | %10
 .[E,G,B,E]2 z4 | z2 .[Ge]2 .[Ge]2 | [Ace]2 b2 a2 | [Ace]2 f2 d2 | [Ad]2 a2 g2 | [Gc]6 | %16
 [GB]2 c2 d2 | [ce]2 f2 g2 | [cfa]2 b2 a2 | [B^d]6 | z2 .[G,B,E]2 .[B,EG]2 | %21
 z2 .[G,B,E]2 .[B,EG]2 | z2 .[G,B,E]2 .[B,EG]2 | z2 .[G,B,E]2 .[B,EG]2 | z2 .[G,B,E]2 .[B,EG]2 | %25
 z2 .[G,B,E]2 .[B,EG]2 | z2 .[G,B,E]2 .[B,EG]2 | z2 .[G,B,E]2 .[B,EG]2 | z2 .[G,CE]2 .[CEG]2 | %29
 z2 .[G,CE]2 .[CEG]2 | z2 .[G,CE]2 .[CEG]2 | z2 .[G,CE]2 .[CEG]2 | [ce]2 b2 a2 | [ce]2 f2 d2 | %34
 [Ad]2 a2 g2 | [Gc]6 | [DGB]2 c2 d2 | [Gce]2 f2 g2 | [cfa]2 b2 a2 | [Ac^d]4 B2 | %40
 z2 .[E^GB]2 .[EGBe]2 | z2 .[E^GB]2 .[EGBe]2 | z2 .[E^GB]2 .[EGBe]2 | z2 .[E^GB]2 .[EGBe]2 | %44
 z2 .[^GB]2 .[GBe]2 | z2 .[^GB]2 .[GBe]2 | z2 .[^GB]2 .[GBe]2 | z2 .[^GB]2 .[GBe]2 | %48
 z2 .[^CEA]2 .[EA^ce]2 | z2 .[^CEA]2 .[EA^ce]2 | z2 .[^CEA]2 .[EA^ce]2 | z2 .[^CEA]2 .[EA^ce]2 | %52
 [ce]2 b2 a2 | [ce]2 f2 d2 | [Ad]2 a2 g2 | [Gc]6 | [DGB]2 c2 d2 | [GBe]2 f2 g2 | [cea]2 ^a2 b2 | %59
 [^dgc']4 f2 | z2 .[B,EB]2 .[B,EB]2 | [B,EB]4 [B,E]2 | z2 .[CEA]2 .[CEA]2 | [B,EA]4 [B,^D]2 | %64
 z2 [G,B,EG]2 [G,B,EG]2 | [G,B,EG]4 [E,G,B,]2 | [E,E]2 [Gg]2 [Ge]2 | [Gc]2 [CG]2 [CE]2 | %68
 [CE]2 [DF]2 [CE]2 | [DF]2 [CE]2 [DF]2 | [G,A,EG]2 [FA]2 [EG]2 | [FA]4 [EG]2 | %72
 [DGB]2 [EGc]2 [DGB]2 | [EGc]2 .B.c .^c.d | [FB_e]2 z4 | !arpeggio![CFBd]6 | %76
 .[GBd]2 .[Bg]2 .[Bg]2 | .[Bda]2 .[Bg]2 .[Bd]2 | .[GBd]2 .[Bg]2 .[Bg]2 | .[Bda]2 .[Bg]2 .[Bd]2 | %80
 .[ceg]2 .[gd']2 .[gd']2 | .[cea]2 .[cg]2 .[cg]2 | .[EGd]2 .[cg]2 .[cg]2 | [cea]2 [ceg]4 | %84
 G2 d2 c2 | =F2 E2 D2 | ^C2 ^G2 F2 | B,2 A,2 ^G,2 ||[K:A] z2 .[CFAc]2 .[Acf]2 | %89
 z2 .[CFAc]2 .[Acf]2 | z2 .[CFAc]2 .[Acf]2 | z2 .[CFAc]2 .[Acf]2 | [Af]2 c'3 c' | [Ag]2 f2 z2 | %94
 [Ac]2 f2 z2 | [Ag]2 f2 z2 | [Af]2 c'3 c' | [Ag]2 f2 z2 | [Ac]2 f2 z2 | [Ag]2 f2 z2 | %100
 [df]2 c'2 b2 | [df]2 g2 e2 | [ce]2 b2 a2 | [Ad]6 | [EAc]2 d2 e2 | [Adf]2 g2 a2 | [dgb]2 c'2 b2 | %107
 [Gc=f]4 B2 | z2 .[A,CF]2 .[CFA]2 | z2 .[A,CF]2 .[CFA]2 | z2 .[A,CF]2 .[CFA]2 | %111
 z2 .[A,CF]2 .[CFA]2 | [Af]2 c'3 c' | [Ag]2 f2 z2 | [Ac]2 f2 z2 | [Ag]2 f2 z2 | [Af]2 c'3 c' | %117
 [Ag]2 f2 z2 | [Ac]2 f2 z2 | [Ag]2 f2 z2 | [df]2 c'2 b2 | [df]2 g2 e2 | [ce]2 b2 a2 | [Ad]6 | %124
 [EAc]2 d2 e2 | [Adf]2 g2 a2 | [dgb]2 c'2 b2 | [Gc=f]4 B2 | z2 .[F^Ac]2 .[FAcf]2 | %129
 z2 .[F^Ac]2 .[FAcf]2 | z2 .[F^Ac]2 .[FAcf]2 | z2 .[F^Ac]2 .[FAcf]2 | [Af]2 c'3 c' | [Ag]2 f2 f2 | %134
 [Ac]2 f2 f2 | [Ag]2 f2 z2 | [Af]2 c'3 c' | [Ag]2 f2 f2 | [Ac]2 f2 f2 | [Ag]2 f2 z2 | %140
 [df]2 c'2 b2 | [df]2 g2 e2 | [ce]2 b2 a2 | [Ad]6 | [EAc]2 d2 e2 | [Adf]2 g2 a2 | [dgb]2 ^b2 c'2 | %147
 [=fad']4 b/c'/^d'/=f'/ | .[f^f']2 .[FAc]2 .[=FAc]2 | [EAc]4 [A,^DF]2 | z2 .[DGB]2 .[D=GB]2 | %151
 [DFB]4 [B,C=F]2 | z2 [FA]2 [=FG]2 | [E=G]4 [^DF]2 | [FA]2 B2 c2 | d2 e2 f2 | [Adf]2 [eg]2 [df]2 | %157
 [eg]2 [df]2 [eg]2 | [^dfa]2 [gb]2 [fa]2 | [^dgb]4 [fa]2 | [eac']2 [fad']2 [eac']2 | %161
 [fad']2 .c'.d' .^d'.e' | [gc'=f']2 z4 | !arpeggio![DGce]6 | .[Acea]2 .[Ace]2 .[EAc]2 | %165
 .[CEA]2 .[EAc]2 .[Ace]2 | .[Adfa]2 .[Adf]2 .[FAd]2 | .[DFA]2 .[FAd]2 .[Adf]2 | %168
 .[EAce]2 .[EAc]2 .[EA]2 | .[EGBd]2 .[EGB]2 .[EG]2 | .[CEA]6 | .[Acea]2 z4 |] %172
V:3
 [C,G,]6 | [D,F,]6 | [A,,E,]6 | [B,,_E,]6 | z6 | z6 | z4 z2 | z2 .[E,B,]2 .[E,B,]2 | .C,2 z4 | z6 | %10
 .E,,2 z2 z2 | z2 .[C,G,]2 .[C,G,]2 | [A,,A,]6 | D,6 | [B,,B,]6 | [E,,E,]6 | [D,,D,]6 | [C,,C,]6 | %18
 F,,6 | [B,,,B,,]6 |{^A,,} .[E,,B,,]2 z4 | .[B,,,B,,]2 z4 | .E,,2 z4 | .[B,,,B,,]2 z4 | .E,,2 z4 | %25
 .[B,,,B,,]2 z4 | .E,,2 z4 | .[B,,,B,,]2 z4 |{F,,} .[C,,G,,]2 z4 | .[G,,,G,,]2 z4 | .C,,2 z4 | %31
 .[G,,,G,,]2 z4 | [A,,E,]6 | [D,A,]6 | [B,,F,]6 | [E,C]6 | [D,G,]6 | [C,G,]6 | [F,C]6 | [B,,F,]6 | %40
{^A,,} .[E,,B,,]6 | .[B,,,B,,]6 | .E,,6 | .[B,,,B,,]6 | .E,,6 | .[B,,,B,,]6 | .E,,6 | %47
 .[B,,,B,,]4 z2 |{^D,} .[A,,E,]6 | .[E,,E,]6 | .A,,6 | .[E,,E,]6 | A,,2 [E,G,]2 [E,G,]2 | %53
 D,,2 [D,F,]2 [D,F,]2 | B,,2 [F,A,]2 [F,A,]2 | E,,2 [C,E,]2 [C,E,]2 | [D,G,]2 z4 | [C,G,]2 z4 | %58
 [F,,^C,F,]6 | [B,,A,]6 | z2 .[G,,G,]2 .[G,,G,]2 | [G,,G,]4 [E,G,]2 | z2 .[F,,F,]2 .[F,,F,]2 | %63
 [F,,F,]4 [B,,A,]2 | z2 [E,,E,]2 [E,,E,]2 | [E,,E,]4 G,,2 | [C,,C,]6 | G,,6 | %68
 [C,,C,]2 [C,G,]2 [C,G,]2 | G,,2 [C,G,]2 [C,G,]2 | [^C,,^C,]2 [E,A,]2 [E,A,]2 | %71
 A,,2 [E,A,]2 [E,A,]2 | [D,,D,]6 | [D,,D,]2 .B,.C .^C.D | .[D,C]2 z4 | !arpeggio![D,,D,]6 | %76
 G,,2 [D,B,]2 [D,B,]2 | D,,2 [D,B,]2 [D,B,]2 | G,,2 [D,B,]2 [D,B,]2 | D,,2 [D,B,]2 [D,B,]2 | %80
 C,2 [E,C]2 [G,E]2 | G,,2 [E,C]2 [G,E]2 | C,2 [E,C]2 [G,E]2 | G,,2 [E,C]2 [G,E]2 | G,,2 D,2 C,2 | %85
 =F,,2 E,,2 D,,2 | ^C,,2 ^G,,2 F,,2 | B,,,2 A,,,2 ^G,,,2 ||[K:A] [F,,F,]6 | C,6 | [F,,F,]6 | C,6 | %92
 F,,2 [C,F,]2 [C,F,]2 | C,,2 [C,F,]2 [C,F,]2 | F,,2 [C,F,]2 [C,F,]2 | C,,2 [C,F,]2 [C,F,]2 | %96
 D,,2 [D,F,]2 [D,F,]2 | A,,2 [D,F,]2 [D,F,]2 | D,,2 [D,F,]2 [D,F,]2 | A,,2 [D,F,]2 [D,F,]2 | %100
 [B,,,B,,]2 [B,,D,F,]2 [B,,D,F,]2 | E,,2 [B,,E,G,]2 [B,,E,G,]2 | C,,2 [C,E,G,]2 [C,E,G,]2 | %103
 F,,2 [D,F,]2 [D,F,]2 | [E,,E,]6 | [D,,D,]6 | G,,6 | [C,,C,]6 |{^B,,} .[F,,C,]6 | .[C,,C,]6 | %110
 .F,,6 | .[C,,C,]6 | F,,2 [C,F,]2 [C,F,]2 | C,,2 [C,F,]2 [C,F,]2 | F,,2 [C,F,]2 [C,F,]2 | %115
 C,,2 [C,F,]2 [C,F,]2 | D,,2 [D,F,]2 [D,F,]2 | A,,2 [D,F,]2 [D,F,]2 | D,,2 [D,F,]2 [D,F,]2 | %119
 A,,2 [D,F,]2 [D,F,]2 | [B,,,B,,]2 [B,,D,F,]2 [B,,D,F,]2 | E,,2 [B,,E,G,]2 [B,,E,G,]2 | %122
 C,,2 [C,E,G,]2 [C,E,G,]2 | F,,2 [A,,D,F,]2 [A,,D,F,]2 | E,,2 [C,A,]2 [C,A,]2 | %125
 D,,2 [A,,F,]2 [A,,F,]2 | G,,2 [F,D]2 [F,D]2 | C,,2 [=F,B,]2 [F,B,]2 |{^B,,} .[F,,C,]6 | %129
 .[C,,C,]6 | .F,,6 | .[C,,C,]6 | F,,2 [C,F,]2 [C,F,]2 | C,,2 [C,F,]2 [C,F,]2 | %134
 F,,2 [C,F,]2 [C,F,]2 | C,,2 [C,F,]2 [C,F,]2 | D,,2 [D,F,]2 [D,F,]2 | A,,2 [D,F,]2 [D,F,]2 | %138
 D,,2 [D,F,]2 [D,F,]2 | A,,2 [D,F,]2 [D,F,]2 | [B,,,B,,]2 [B,,D,F,]2 [B,,D,F,]2 | %141
 E,,2 [B,,E,G,]2 [B,,E,G,]2 | C,,2 [C,E,G,]2 [C,E,G,]2 | F,,2 [A,,D,F,]2 [A,,D,F,]2 | %144
 E,,2 [C,A,]2 [C,A,]2 | D,,2 [A,,F,]2 [A,,F,]2 | G,,2 [F,D]2 [F,D]2 | C,,2 [=F,B,]2 [F,B,]2 | %148
 F,,2 .[C,F,]2 .[C,F,]2 | [C,F,]4 [C,F,]2 | z2 .[D,F,]2 .[D,F,]2 | [D,F,]4 [C,G,]2 | %152
 z2 [C,F,]2 [C,F,]2 | [C,F,]4 [C,F,]2 | D,2 [A,D]2 [A,D]2 | A,,2 [A,D]2 [A,D]2 | %156
 A,,2 [A,D]2 [A,D]2 | A,,2 [A,D]2 [A,D]2 | B,,2 [F,B,]2 [F,B,]2 | F,,2 [F,B,]2 [F,B,]2 | %160
 E,,2 [C,A,]2 [C,A,]2 | [E,,E,]2 .C.D .^D.E | .[E,=D]2 z4 | !arpeggio![E,,E,]6 | %164
 A,,2 [E,C]2 [E,C]2 | E,,2 [E,C]2 [E,C]2 | D,2 [A,F]2 [A,F]2 | A,,2 [A,F]2 [A,F]2 | %168
 [E,,E,]2 [E,A,C]2 [E,A,C]2 | [E,,E,]2 [E,G,B,]2 [E,G,B,]2 | [A,,A,]2 [D,,D,]2 [E,,E,]2 | %171
 .[A,,,A,,]2 z4 |] %172

